X: 36350
T: Sean Kelly
R: reel
M: 4/4
K: Eminor
|:GE E2 E3F|GE E2 dBAF|GE E2 EGFE|DFAF BFAF|
GEFD E3F|GE E2 dBAF|(3GFE FD E3F|DFAF GE E2:|
|:Be e2 efed|Beef gfed|Bdd^c dedB|ABAG FDFA|
Be e2 efed|Beef g2 fe|af f2 egfe|dBAF GEFD:|

